X:197
T: Dunkeld Hermitage
N: O'Farrell's Pocket Companion v.3 (Sky ed. p.101)
D: O'Sullivan Meets O'Farrell track 13b
N: "Scotch"
M: C
R: reel %?
L: 1/8
Q: 350
K: Em
B| E<E B2 GEBG| FdAd FDAF|E<E B2 GEBG| AG/F/dF E/E/E E :|
z| e<e gb bege| d<d fg adfd| e<e gb bege|dBdF E/E/E E2|
e<e gb bege| d<d fg adfd|g<bf<a e<gde|AG/F/ dF E/E/E E :|
